public/share/copy-failed-blog.svg

<svg xmlns="http://www.w3.org/2000/svg" xmlns:vectornator="http://vectornator.io" xml:space="preserve" stroke-miterlimit="10" style="fill-rule:nonzero;clip-rule:evenodd;stroke-linecap:round;stroke-linejoin:round" viewBox="0 0 1024 1024"><clipPath id="a"><path d="M0 0h1024v1024H0z"/></clipPath><g vectornator:layerName="Layer 1" clip-path="url(#a)"><g vectornator:layerName="Group 1" fill="#701a75" opacity=".402"><path vectornator:layerName="Curve 1" d="m565.833 414.853-38.841 38.841c8.788 5.152 17.057 11.34 24.516 18.798 52.987 52.988 47.456 144.428-12.342 204.227L294.417 921.467c-59.798 59.799-151.205 65.296-204.192 12.308-52.988-52.987-47.49-144.394 12.308-204.192l225.479-225.48-30.165-30.165L52.225 719.561c-69.643 69.643-69.61 182.538.033 252.181 69.643 69.638 182.538 69.678 252.181.034L589.474 686.74c69.643-69.643 69.643-182.571 0-252.214-7.398-7.399-15.369-13.846-23.641-19.673Z" opacity="1"/><path vectornator:layerName="Curve 2" d="m458.176 609.138 38.841-38.841c-8.788-5.152-17.057-11.34-24.515-18.798-52.988-52.988-47.457-144.428 12.341-204.227l244.749-244.748c59.798-59.799 151.205-65.296 204.192-12.308 52.988 52.987 47.491 144.394-12.308 204.192l-225.479 225.48 30.165 30.164 245.623-245.623c69.645-69.642 69.605-182.537-.034-252.18-69.643-69.643-182.538-69.677-252.18-.034L434.535 337.251c-69.643 69.643-69.643 182.571 0 252.214 7.398 7.399 15.369 13.846 23.641 19.673Z" opacity="1"/></g><path vectornator:layerName="Curve 1" fill="#fff" d="M512 256.062c-141.113 0-255.938 114.825-255.938 255.938S370.887 767.937 512 767.938c141.113 0 255.937-114.825 255.938-255.938 0-141.113-114.825-255.938-255.938-255.938Zm-131.688 97.719h270.813v291H380.312v-291Zm42.657 58.031a11.078 11.078 0 0 0-7.875 3.25c-4.34 4.34-4.34 11.473 0 15.813L496.188 512l-81.094 81.125c-4.34 4.34-4.34 11.473 0 15.813 2.225 2.114 4.981 3.218 7.875 3.218 2.893 0 5.68-1.104 7.906-3.218L512 527.812l81.125 81.126c2.226 2.114 5.013 3.218 7.906 3.218 2.894 0 5.681-1.104 7.907-3.218 4.339-4.34 4.339-11.473 0-15.813L527.812 512l81.126-81.125c4.339-4.34 4.339-11.473 0-15.813-4.34-4.339-11.473-4.339-15.813 0L512 496.188l-81.125-81.126c-2.17-2.169-5.041-3.249-7.906-3.25Z"/><path vectornator:layerName="path 1" fill="#701a75" d="M512.005 256.058c-141.113 0-255.942 114.829-255.942 255.942s114.829 255.942 255.942 255.942c141.112 0 255.941-114.829 255.941-255.942S653.117 256.058 512.005 256.058Zm96.924 337.064c4.339 4.34 4.339 11.462 0 15.802-2.226 2.114-5.008 3.227-7.901 3.227-2.894 0-5.676-1.113-7.901-3.227l-81.122-81.122-81.123 81.122c-2.225 2.114-5.007 3.227-7.901 3.227-2.893 0-5.675-1.113-7.9-3.227-4.34-4.34-4.34-11.462 0-15.802L496.203 512l-81.122-81.122c-4.34-4.34-4.34-11.462 0-15.802s11.461-4.34 15.801 0l81.123 81.122 81.122-81.122c4.34-4.34 11.462-4.34 15.802 0 4.339 4.34 4.339 11.462 0 15.802L527.806 512l81.123 81.122Z"/></g></svg>

<?xml version="1.0" encoding="UTF-8" standalone="no"?>
<!DOCTYPE svg PUBLIC "-//W3C//DTD SVG 1.1//EN" "http://www.w3.org/Graphics/SVG/1.1/DTD/svg11.dtd">
<!-- Created with Vectornator (http://vectornator.io/) -->
<svg height="100%" stroke-miterlimit="10" style="fill-rule:nonzero;clip-rule:evenodd;stroke-linecap:round;stroke-linejoin:round;" version="1.1" viewBox="0 0 1024 1024" width="100%" xml:space="preserve" xmlns="http://www.w3.org/2000/svg" xmlns:vectornator="http://vectornator.io" xmlns:xlink="http://www.w3.org/1999/xlink">
<defs/>
<clipPath id="ArtboardFrame">
<rect height="1024" width="1024" x="0" y="0"/>
</clipPath>
<g clip-path="url(#ArtboardFrame)" id="Layer-1" vectornator:layerName="Layer 1">
<g opacity="0.402087" vectornator:layerName="Group 1">
<path d="M565.833 414.853L526.992 453.694C535.78 458.846 544.049 465.034 551.508 472.492C604.495 525.48 598.964 616.92 539.166 676.719L294.417 921.467C234.619 981.266 143.212 986.763 90.2247 933.775C37.2372 880.788 42.7344 789.381 102.533 729.583L328.012 504.103L297.847 473.938L52.2245 719.561C-17.4184 789.204-17.3847 902.099 52.2581 971.742C121.901 1041.38 234.796 1041.42 304.439 971.776L589.474 686.74C659.117 617.097 659.117 504.169 589.474 434.526C582.076 427.127 574.105 420.68 565.833 414.853Z" fill="#701a75" fill-rule="nonzero" opacity="1" stroke="none" vectornator:layerName="Curve 1"/>
<path d="M458.176 609.138L497.017 570.297C488.229 565.145 479.96 558.957 472.502 551.499C419.514 498.511 425.045 407.071 484.843 347.272L729.592 102.524C789.39 42.7253 880.797 37.228 933.784 90.2156C986.772 143.203 981.275 234.61 921.476 294.408L695.997 519.888L726.162 550.052L971.785 304.429C1041.43 234.787 1041.39 121.892 971.751 52.2489C902.108-17.3938 789.213-17.4276 719.571 52.2153L434.535 337.251C364.892 406.894 364.892 519.822 434.535 589.465C441.933 596.864 449.904 603.311 458.176 609.138Z" fill="#701a75" fill-rule="nonzero" opacity="1" stroke="none" vectornator:layerName="Curve 2"/>
</g>
<path d="M512 256.062C370.887 256.062 256.062 370.887 256.062 512C256.062 653.113 370.887 767.937 512 767.938C653.113 767.938 767.937 653.113 767.938 512C767.938 370.887 653.113 256.062 512 256.062ZM380.312 353.781L651.125 353.781L651.125 644.781L380.312 644.781L380.312 353.781ZM422.969 411.812C420.103 411.812 417.264 412.893 415.094 415.062C410.754 419.402 410.754 426.535 415.094 430.875L496.188 512L415.094 593.125C410.754 597.465 410.754 604.598 415.094 608.938C417.319 611.052 420.075 612.156 422.969 612.156C425.862 612.156 428.649 611.052 430.875 608.938L512 527.812L593.125 608.938C595.351 611.052 598.138 612.156 601.031 612.156C603.925 612.156 606.712 611.052 608.938 608.938C613.277 604.598 613.277 597.465 608.938 593.125L527.812 512L608.938 430.875C613.277 426.535 613.277 419.402 608.938 415.062C604.598 410.723 597.465 410.723 593.125 415.062L512 496.188L430.875 415.062C428.705 412.893 425.834 411.813 422.969 411.812Z" fill="#ffffff" fill-rule="nonzero" opacity="1" stroke="none" vectornator:layerName="Curve 1"/>
<path d="M512.005 256.058C370.892 256.058 256.063 370.887 256.063 512C256.063 653.113 370.892 767.942 512.005 767.942C653.117 767.942 767.946 653.113 767.946 512C767.946 370.887 653.117 256.058 512.005 256.058ZM608.929 593.122C613.268 597.462 613.268 604.584 608.929 608.924C606.703 611.038 603.921 612.151 601.028 612.151C598.134 612.151 595.352 611.038 593.127 608.924L512.005 527.802L430.882 608.924C428.657 611.038 425.875 612.151 422.981 612.151C420.088 612.151 417.306 611.038 415.081 608.924C410.741 604.584 410.741 597.462 415.081 593.122L496.203 512L415.081 430.878C410.741 426.538 410.741 419.416 415.081 415.076C419.421 410.736 426.542 410.736 430.882 415.076L512.005 496.198L593.127 415.076C597.467 410.736 604.589 410.736 608.929 415.076C613.268 419.416 613.268 426.538 608.929 430.878L527.806 512L608.929 593.122Z" fill="#701a75" fill-rule="nonzero" opacity="1" stroke="none" vectornator:layerName="path 1"/>
</g>
</svg>
